Faience-ng/16x16/apps/viewnior.svg

<?xml version="1.0" encoding="UTF-8" standalone="no"?>
<!-- Created with Inkscape (http://www.inkscape.org/) -->

<svg
   xmlns:dc="http://purl.org/dc/elements/1.1/"
   xmlns:cc="http://creativecommons.org/ns#"
   xmlns:rdf="http://www.w3.org/1999/02/22-rdf-syntax-ns#"
   xmlns:svg="http://www.w3.org/2000/svg"
   xmlns="http://www.w3.org/2000/svg"
   xmlns:xlink="http://www.w3.org/1999/xlink"
   xmlns:sodipodi="http://sodipodi.sourceforge.net/DTD/sodipodi-0.dtd"
   xmlns:inkscape="http://www.inkscape.org/namespaces/inkscape"
   width="16"
   height="16"
   id="svg2"
   sodipodi:version="0.32"
   inkscape:version="0.91 r13725"
   version="1.0"
   sodipodi:docname="viewnior.svg"
   inkscape:output_extension="org.inkscape.output.svg.inkscape"
   style="display:inline">
  <defs
     id="defs4">
    <inkscape:perspective
       sodipodi:type="inkscape:persp3d"
       inkscape:vp_x="0 : 8 : 1"
       inkscape:vp_y="0 : 1000 : 0"
       inkscape:vp_z="16 : 8 : 1"
       inkscape:persp3d-origin="8 : 5.3333333 : 1"
       id="perspective35" />
    <linearGradient
       inkscape:collect="always"
       id="linearGradient3327">
      <stop
         style="stop-color:#000000;stop-opacity:1;"
         offset="0"
         id="stop3330" />
      <stop
         style="stop-color:#000000;stop-opacity:0;"
         offset="1"
         id="stop3333" />
    </linearGradient>
    <linearGradient
       id="ButtonColor"
       x1="10.31979"
       y1="21"
       x2="10.31979"
       y2="0.99929649"
       gradientUnits="userSpaceOnUse">
      <stop
         style="stop-color:#29669f;stop-opacity:1;"
         offset="0"
         id="stop3189" />
      <stop
         style="stop-color:#88b6e0;stop-opacity:1;"
         offset="1"
         id="stop3191" />
    </linearGradient>
    <linearGradient
       inkscape:collect="always"
       xlink:href="#linearGradient3700"
       id="linearGradient3204"
       x1="1"
       y1="9"
       x2="15"
       y2="9"
       gradientUnits="userSpaceOnUse"
       gradientTransform="translate(-17,-2)" />
    <linearGradient
       inkscape:collect="always"
       xlink:href="#linearGradient3327"
       id="linearGradient3629"
       x1="0"
       y1="8"
       x2="29.017237"
       y2="8"
       gradientUnits="userSpaceOnUse"
       gradientTransform="matrix(0,-1,1,0,0,16)" />
    <linearGradient
       inkscape:collect="always"
       xlink:href="#SVGID_1_-4"
       id="linearGradient3765"
       gradientUnits="userSpaceOnUse"
       gradientTransform="matrix(0.09341072,0,0,0.04108075,-26.756456,8.0246654)"
       x1="383.28857"
       y1="0"
       x2="383.28857"
       y2="218.48047" />
    <linearGradient
       id="SVGID_1_-4"
       gradientUnits="userSpaceOnUse"
       x1="383.28857"
       y1="0"
       x2="383.28857"
       y2="218.48047">
      <stop
         offset="0.005618"
         style="stop-color:#ED2828"
         id="stop3143-2" />
      <stop
         offset="0.5"
         style="stop-color:#EF3B39"
         id="stop3145-1" />
      <stop
         offset="0.994382"
         style="stop-color:#C02126"
         id="stop3147-3" />
    </linearGradient>
    <linearGradient
       y2="180.6748"
       x2="175.30762"
       y1="73.254395"
       x1="175.30762"
       gradientUnits="userSpaceOnUse"
       id="linearGradient3749-5">
      <stop
         id="stop3751-8"
         style="stop-color:#000000;stop-opacity:1;"
         offset="0" />
      <stop
         id="stop3753-7"
         style="stop-color:#000000;stop-opacity:0.4728682;"
         offset="0.99438202" />
    </linearGradient>
    <linearGradient
       inkscape:collect="always"
       xlink:href="#linearGradient3749-5"
       id="linearGradient3754"
       gradientUnits="userSpaceOnUse"
       gradientTransform="matrix(0.04164302,0,0,0.03408859,1.9444673,0.78644322)"
       x1="175.30762"
       y1="73.254395"
       x2="175.30762"
       y2="180.6748" />
    <linearGradient
       inkscape:collect="always"
       xlink:href="#linearGradient3749-5"
       id="linearGradient3756"
       gradientUnits="userSpaceOnUse"
       gradientTransform="matrix(0.04998763,0,0,0.03408859,2.4795353,0.78644322)"
       x1="175.30762"
       y1="73.254395"
       x2="175.30762"
       y2="180.6748" />
    <linearGradient
       y2="180.6748"
       x2="175.30762"
       y1="73.254395"
       x1="175.30762"
       gradientTransform="matrix(0.04859283,0,0,0.03408859,3.115962,0.78644322)"
       gradientUnits="userSpaceOnUse"
       id="linearGradient3809"
       xlink:href="#linearGradient3749-5"
       inkscape:collect="always" />
    <inkscape:perspective
       id="perspective3729"
       inkscape:persp3d-origin="0.5 : 0.33333333 : 1"
       inkscape:vp_z="1 : 0.5 : 1"
       inkscape:vp_y="0 : 1000 : 0"
       inkscape:vp_x="0 : 0.5 : 1"
       sodipodi:type="inkscape:persp3d" />
    <linearGradient
       inkscape:collect="always"
       xlink:href="#linearGradient3696"
       id="linearGradient4163"
       x1="6"
       y1="48"
       x2="90"
       y2="48"
       gradientUnits="userSpaceOnUse"
       gradientTransform="translate(-96,0)" />
    <linearGradient
       id="linearGradient3696">
      <stop
         id="stop3698"
         offset="0"
         style="stop-color:#2458a6;stop-opacity:1;" />
      <stop
         id="stop3700"
         offset="1"
         style="stop-color:#598ad4;stop-opacity:1;" />
    </linearGradient>
    <linearGradient
       y2="48"
       x2="90"
       y1="48"
       x1="6"
       gradientTransform="translate(-52.867199,-57.252856)"
       gradientUnits="userSpaceOnUse"
       id="linearGradient3738"
       xlink:href="#linearGradient3696"
       inkscape:collect="always" />
    <inkscape:perspective
       id="perspective3703"
       inkscape:persp3d-origin="0.5 : 0.33333333 : 1"
       inkscape:vp_z="1 : 0.5 : 1"
       inkscape:vp_y="0 : 1000 : 0"
       inkscape:vp_x="0 : 0.5 : 1"
       sodipodi:type="inkscape:persp3d" />
    <linearGradient
       gradientTransform="matrix(0.19388162,0,0,0.19388162,-1.4007219,-1.9461429)"
       inkscape:collect="always"
       xlink:href="#linearGradient4099"
       id="linearGradient4113"
       x1="22.111456"
       y1="62.983868"
       x2="40"
       y2="32"
       gradientUnits="userSpaceOnUse" />
    <linearGradient
       id="linearGradient4099">
      <stop
         style="stop-color:#9ede27;stop-opacity:1;"
         offset="0"
         id="stop4101" />
      <stop
         style="stop-color:#c8f16b;stop-opacity:1;"
         offset="1"
         id="stop4103" />
    </linearGradient>
    <linearGradient
       gradientTransform="matrix(0.19388162,0,0,0.19388162,-1.5256152,-1.9461429)"
       inkscape:collect="always"
       xlink:href="#linearGradient4099"
       id="linearGradient4105"
       x1="38"
       y1="74"
       x2="70"
       y2="49"
       gradientUnits="userSpaceOnUse" />
    <linearGradient
       id="linearGradient3712">
      <stop
         style="stop-color:#9ede27;stop-opacity:1;"
         offset="0"
         id="stop3714" />
      <stop
         style="stop-color:#c8f16b;stop-opacity:1;"
         offset="1"
         id="stop3716" />
    </linearGradient>
    <linearGradient
       inkscape:collect="always"
       xlink:href="#linearGradient3799-3"
       id="linearGradient3746"
       gradientUnits="userSpaceOnUse"
       x1="56.037025"
       y1="49.333305"
       x2="56.037025"
       y2="13.593002"
       gradientTransform="matrix(0.26518093,0,0,0.26518093,-0.34872536,-3.7081516)" />
    <linearGradient
       id="linearGradient3799-3">
      <stop
         style="stop-color:#1a1a1a;stop-opacity:1;"
         offset="0"
         id="stop3801-3" />
      <stop
         style="stop-color:#000000;stop-opacity:1;"
         offset="1"
         id="stop3803-2" />
    </linearGradient>
    <linearGradient
       y2="13.593002"
       x2="56.037025"
       y1="49.333305"
       x1="56.037025"
       gradientTransform="matrix(0.19388162,0,0,0.19388162,-1.3401963,-1.8843368)"
       gradientUnits="userSpaceOnUse"
       id="linearGradient3726"
       xlink:href="#linearGradient3799-3"
       inkscape:collect="always" />
    <inkscape:perspective
       id="perspective3736"
       inkscape:persp3d-origin="0.5 : 0.33333333 : 1"
       inkscape:vp_z="1 : 0.5 : 1"
       inkscape:vp_y="0 : 1000 : 0"
       inkscape:vp_x="0 : 0.5 : 1"
       sodipodi:type="inkscape:persp3d" />
    <radialGradient
       inkscape:collect="always"
       xlink:href="#linearGradient3784-2"
       id="radialGradient3758"
       gradientUnits="userSpaceOnUse"
       gradientTransform="matrix(1.0456205,0.08243661,-0.05194947,0.90987799,0.84943041,1.3399685)"
       cx="49.580967"
       cy="67.04126"
       fx="49.580967"
       fy="67.04126"
       r="10" />
    <linearGradient
       id="linearGradient3784-2">
      <stop
         id="stop3786-4"
         offset="0"
         style="stop-color:#a0a0a0;stop-opacity:1;" />
      <stop
         id="stop3790-2"
         offset="1"
         style="stop-color:#1a1a1a;stop-opacity:1;" />
    </linearGradient>
    <radialGradient
       r="10"
       fy="67.04126"
       fx="49.580967"
       cy="67.04126"
       cx="49.580967"
       gradientTransform="matrix(1.0456205,0.08243661,-0.05194947,0.90987799,0.84943041,1.3399685)"
       gradientUnits="userSpaceOnUse"
       id="radialGradient3745"
       xlink:href="#linearGradient3784-2"
       inkscape:collect="always" />
    <radialGradient
       inkscape:collect="always"
       xlink:href="#linearGradient3784-2"
       id="radialGradient3698"
       cx="10.116978"
       cy="6.5340972"
       fx="10.116978"
       fy="6.5340972"
       r="2.6487656"
       gradientTransform="matrix(0.60548597,-0.18291744,0.13322228,0.44098703,0.81853832,7.6996387)"
       gradientUnits="userSpaceOnUse" />
    <linearGradient
       inkscape:collect="always"
       xlink:href="#linearGradient3700"
       id="linearGradient3181"
       x1="-3.0607977"
       y1="27.258198"
       x2="-3.0607977"
       y2="7.2536583"
       gradientUnits="userSpaceOnUse"
       gradientTransform="translate(12.119372,-7.2581977)" />
    <linearGradient
       id="linearGradient3700">
      <stop
         style="stop-color:#b4b4b4;stop-opacity:1;"
         offset="0"
         id="stop3702" />
      <stop
         style="stop-color:#e6e6e6;stop-opacity:1;"
         offset="1"
         id="stop3704" />
    </linearGradient>
    <linearGradient
       id="linearGradient3818">
      <stop
         style="stop-color:#aa0000;stop-opacity:1;"
         offset="0"
         id="stop3820" />
      <stop
         style="stop-color:#d20000;stop-opacity:1;"
         offset="1"
         id="stop3822" />
    </linearGradient>
    <linearGradient
       y2="7.2536583"
       x2="-3.0607977"
       y1="27.258198"
       x1="-3.0607977"
       gradientTransform="translate(-6.5475724,-8.7364634)"
       gradientUnits="userSpaceOnUse"
       id="linearGradient3906"
       xlink:href="#linearGradient3700"
       inkscape:collect="always" />
    <linearGradient
       inkscape:collect="always"
       xlink:href="#linearGradient3818"
       id="linearGradient3854"
       gradientUnits="userSpaceOnUse"
       gradientTransform="matrix(1.4883721,0,0,1.4883721,-47.473404,-69.040588)"
       x1="38.176777"
       y1="48.850189"
       x2="38.176777"
       y2="56.016853" />
    <linearGradient
       inkscape:collect="always"
       xlink:href="#linearGradient3818"
       id="linearGradient3858"
       gradientUnits="userSpaceOnUse"
       gradientTransform="matrix(1.4883721,0,0,1.4883721,-47.473404,-70.040588)"
       x1="38.176777"
       y1="48.850189"
       x2="38.176777"
       y2="56.016853" />
    <radialGradient
       inkscape:collect="always"
       xlink:href="#linearGradient3818"
       id="radialGradient3184-1"
       gradientUnits="userSpaceOnUse"
       gradientTransform="matrix(0.0027517,0.58472792,-0.56725188,0.00267107,8.4152612,-2.4183286)"
       spreadMethod="pad"
       cx="8.3132696"
       cy="9.940402"
       fx="8.3132696"
       fy="9.940402"
       r="19.99979" />
  </defs>
  <sodipodi:namedview
     id="base"
     pagecolor="#ffffff"
     bordercolor="#e7e7e7"
     borderopacity="1"
     inkscape:pageopacity="0.0"
     inkscape:pageshadow="2"
     inkscape:zoom="28.348819"
     inkscape:cx="2.7857144"
     inkscape:cy="8.1621374"
     inkscape:document-units="px"
     inkscape:current-layer="layer1"
     showgrid="true"
     inkscape:showpageshadow="false"
     showguides="false"
     inkscape:guide-bbox="true"
     inkscape:window-width="1366"
     inkscape:window-height="743"
     inkscape:window-x="0"
     inkscape:window-y="25"
     inkscape:window-maximized="1"
     inkscape:snap-global="false">
    <sodipodi:guide
       orientation="1,0"
       position="0,112"
       id="guide2383" />
    <sodipodi:guide
       orientation="0,1"
       position="26.278146,128"
       id="guide2385" />
    <sodipodi:guide
       orientation="1,0"
       position="128,54.082119"
       id="guide2387" />
    <sodipodi:guide
       orientation="0,1"
       position="78.156291,0"
       id="guide2389" />
    <sodipodi:guide
       orientation="0,1"
       position="60.863576,64.084768"
       id="guide2391" />
    <inkscape:grid
       type="xygrid"
       id="grid3672"
       visible="true"
       enabled="true" />
  </sodipodi:namedview>
  <metadata
     id="metadata7">
    <rdf:RDF>
      <cc:Work
         rdf:about="">
        <dc:format>image/svg+xml</dc:format>
        <dc:type
           rdf:resource="http://purl.org/dc/dcmitype/StillImage" />
        <dc:title />
      </cc:Work>
    </rdf:RDF>
  </metadata>
  <g
     inkscape:label="Button"
     inkscape:groupmode="layer"
     id="layer1">
    <rect
       ry="2"
       rx="2"
       y="0"
       x="-16"
       height="16"
       width="16"
       id="rect3196"
       style="fill:url(#linearGradient3204);fill-opacity:1.0;fill-rule:nonzero;stroke:none"
       transform="matrix(0,-1,1,0,0,0)" />
    <path
       style="font-style:normal;font-weight:normal;font-size:40px;font-family:'Bitstream Vera Sans';display:inline;fill:#ffffff;fill-opacity:1;stroke:none;stroke-width:1;stroke-linecap:butt;stroke-linejoin:miter;stroke-miterlimit:4;stroke-dasharray:none;stroke-opacity:1;opacity:0.7"
       d="M 2 3 L 6.1796875 15 L 9.8964844 15 L 9.984375 14.75 C 9.965753 14.7361 9.9440073 14.725238 9.9257812 14.710938 C 9.7628909 14.583103 9.5786647 14.466363 9.4824219 14.287109 C 9.4313571 14.192 9.400992 14.0958 9.3789062 14 L 6.1796875 14 L 2.3476562 3 L 2 3 z M 13.658203 3 L 12.025391 7.7890625 C 11.438081 7.8461863 11.545185 8.0457315 11.427734 8.7421875 C 10.814526 8.3661395 10.482301 8.1294133 9.9648438 8.6445312 C 9.5812631 9.026376 9.6419269 9.3054662 9.8867188 9.75 C 9.9162836 9.7144004 9.9271437 9.6820607 9.9648438 9.6445312 C 10.482301 9.1294133 10.814526 9.3661395 11.427734 9.7421875 C 11.545185 9.0457315 11.438081 8.8461863 12.025391 8.7890625 L 14 3 L 13.658203 3 z M 9.7246094 10.027344 C 9.2718211 10.16003 8.7452645 10.333454 8.7890625 10.976562 C 8.8018812 11.164774 8.8780614 11.296393 8.9746094 11.410156 C 9.2251404 11.136392 9.6766203 11.053129 9.9941406 10.945312 C 9.761294 10.551217 9.6443447 10.292087 9.7246094 10.027344 z M 9.3691406 12.716797 C 9.3459118 12.905724 9.3805375 13.097347 9.4824219 13.287109 C 9.4918646 13.304697 9.5104569 13.315579 9.5214844 13.332031 C 9.6044315 13.219689 9.7144679 13.109441 9.8691406 13.005859 C 9.7050314 12.894224 9.5345246 12.809394 9.3691406 12.716797 z "
       id="path4215" />
    <path
       style="opacity:0.4;fill:url(#linearGradient3629);fill-opacity:1;fill-rule:nonzero;stroke:none"
       d="m 0,14 c 0,1.108 0.892,2 2,2 l 12,0 c 1.108,0 2,-0.892 2,-2 L 16,2 C 16,0.892 15.108,0 14,0 L 2,0 C 0.892,0 0,0.892 0,2 l 0,12 z m 0.96875,0 0,-12 C 0.96875,1.416801 1.4168007,0.96875 2,0.96875 l 12,0 c 0.583199,0 1.03125,0.448051 1.03125,1.03125 l 0,12 c 0,0.583199 -0.448051,1.03125 -1.03125,1.03125 l -12,0 C 1.4168007,15.03125 0.96875,14.583199 0.96875,14 z"
       id="rect2835" />
    <path
       style="fill:#ffffff;fill-opacity:1;fill-rule:nonzero;stroke:none;opacity:0.35"
       d="M 2 0.96875 C 1.4168007 0.96875 0.96875 1.4168007 0.96875 2 L 0.96875 3 C 0.96875 2.4168007 1.4168007 1.96875 2 1.96875 L 14 1.96875 C 14.583199 1.96875 15.03125 2.4168007 15.03125 3 L 15.03125 2 C 15.03125 1.4168007 14.583199 0.96875 14 0.96875 L 2 0.96875 z "
       id="path2843" />
    <path
       inkscape:connector-curvature="0"
       style="font-style:normal;font-weight:normal;font-size:40px;font-family:'Bitstream Vera Sans';display:inline;fill:url(#radialGradient3184-1);fill-opacity:1;stroke:none;stroke-width:1;stroke-linecap:butt;stroke-linejoin:miter;stroke-miterlimit:4;stroke-dasharray:none;stroke-opacity:1"
       d="m 2.0000017,2.0000009 4.1797748,11.9999981 3.7174958,0 0.086677,-0.250401 c -0.018622,-0.0139 -0.039562,-0.02422 -0.057788,-0.03852 C 9.763271,13.583243 9.579386,13.466576 9.4831432,13.287322 9.2470544,12.8476 9.2943689,12.390826 9.868376,12.006423 9.4118429,11.695865 8.8311209,11.583726 8.7897247,10.975926 8.7369477,10.200974 9.5202823,10.106139 9.9935765,9.9454281 9.6537215,9.3702201 9.525305,9.0826621 9.9646865,8.6452691 c 0.5174575,-0.515118 0.8506765,-0.279738 1.4638845,0.09631 0.117451,-0.696456 0.0098,-0.8963266 0.59711,-0.9534504 L 14,2.0000077 l -3.476726,0 L 8.0674154,10.63885 5.5826645,2.0000077 2,2.0000077 Z"
       id="path3649-8" />
  </g>
</svg>

<?xml version="1.0" encoding="UTF-8" standalone="no"?>
<svg
   xmlns:dc="http://purl.org/dc/elements/1.1/"
   xmlns:cc="http://creativecommons.org/ns#"
   xmlns:rdf="http://www.w3.org/1999/02/22-rdf-syntax-ns#"
   xmlns:svg="http://www.w3.org/2000/svg"
   xmlns="http://www.w3.org/2000/svg"
   xmlns:sodipodi="http://sodipodi.sourceforge.net/DTD/sodipodi-0.dtd"
   xmlns:inkscape="http://www.inkscape.org/namespaces/inkscape"
   id="svg2"
   width="16"
   height="16"
   version="1.0"
   sodipodi:docname="viewnior.svg"
   inkscape:version="0.92.2 5c3e80d, 2017-08-06">
  <metadata
     id="metadata31">
    <rdf:RDF>
      <cc:Work
         rdf:about="">
        <dc:format>image/svg+xml</dc:format>
        <dc:type
           rdf:resource="http://purl.org/dc/dcmitype/StillImage" />
      </cc:Work>
    </rdf:RDF>
  </metadata>
  <sodipodi:namedview
     pagecolor="#ffffff"
     bordercolor="#666666"
     borderopacity="1"
     objecttolerance="10"
     gridtolerance="10"
     guidetolerance="10"
     inkscape:pageopacity="0"
     inkscape:pageshadow="2"
     inkscape:window-width="1366"
     inkscape:window-height="743"
     id="namedview29"
     showgrid="true"
     inkscape:zoom="20.85965"
     inkscape:cx="3.7551214"
     inkscape:cy="9.9062881"
     inkscape:current-layer="svg2"
     inkscape:window-x="0"
     inkscape:window-y="25"
     inkscape:window-maximized="1">
    <inkscape:grid
       type="xygrid"
       id="grid830" />
  </sodipodi:namedview>
  <defs
     id="defs4">
    <linearGradient
       id="linearGradient3204"
       x1="1"
       x2="15"
       y1="9"
       y2="9"
       gradientTransform="translate(-17,-2)"
       gradientUnits="userSpaceOnUse">
      <stop
         id="stop3189"
         stop-color="#bc211a"
         offset="0" />
      <stop
         id="stop3191"
         stop-color="#ff4746"
         offset="1" />
    </linearGradient>
    <linearGradient
       id="linearGradient3629"
       x2="29.017"
       y1="8"
       y2="8"
       gradientTransform="matrix(0,-1,1,0,0,16)"
       gradientUnits="userSpaceOnUse">
      <stop
         id="stop3330"
         offset="0" />
      <stop
         id="stop3333"
         stop-opacity="0"
         offset="1" />
    </linearGradient>
  </defs>
  <g
     id="layer1">
    <rect
       id="rect3196"
       transform="rotate(-90)"
       x="-16"
       width="16"
       height="16"
       rx="2"
       ry="2"
       fill="url(#linearGradient3204)" />
    <path
       id="rect2835"
       d="m0 14c0 1.108 0.892 2 2 2h12c1.108 0 2-0.892 2-2v-12c0-1.108-0.892-2-2-2h-12c-1.108 0-2 0.892-2 2v12zm0.96875 0v-12c0-0.5832 0.44805-1.0312 1.0312-1.0312h12c0.5832 0 1.0312 0.44805 1.0312 1.0312v12c0 0.5832-0.44805 1.0312-1.0312 1.0312h-12c-0.5832 0-1.0312-0.44805-1.0312-1.0312z"
       fill="url(#linearGradient3629)"
       opacity=".4" />
    <path
       id="path2843"
       d="m2 0.96875c-0.5832 0-1.0312 0.44805-1.0312 1.0312v1c0-0.5832 0.44805-1.0312 1.0312-1.0312h12c0.5832 0 1.0312 0.44805 1.0312 1.0312v-1c0-0.5832-0.44805-1.0312-1.0312-1.0312h-12z"
       fill="#fff"
       opacity=".35" />
  </g>
  <defs
     id="defs21">
    <filter
       id="w">
      <feGaussianBlur
         stdDeviation="0.26998568"
         id="feGaussianBlur13" />
    </filter>
    <linearGradient
       id="a"
       gradientUnits="userSpaceOnUse"
       x1="8"
       y1="1"
       x2="8"
       y2="15.00034">
      <stop
         stop-color="#fafafa"
         offset="0"
         id="stop16" />
      <stop
         stop-color="#ebebeb"
         offset="1"
         id="stop18" />
    </linearGradient>
  </defs>
  <g
     id="main"
     transform="matrix(0.87285989,0,0,0.87285989,0.95354849,1.0171426)">
    <path
       style="opacity:0.4;fill:#000000;filter:url(#w)"
       inkscape:connector-curvature="0"
       id="path23"
       d="M 1.3828,1 C 1.1058,1 0.9437,1.20098 1.01952,1.45117 l 3.9688,13.098 c 0.075815,0.2502 0.35972,0.45117 0.63672,0.45117 h 3.75 c 0.277,0 0.5609,-0.20098 0.63672,-0.45117 l 0.26367,-0.87109 c -0.1764,-0.18548 -0.27497,-0.43153 -0.27539,-0.6875 8.75e-4,-0.17964 0.05013,-0.35574 0.14258,-0.50976 -0.04723,0.0067 -0.09488,0.0099 -0.14258,0.0098 -0.55228,0 -1,-0.44772 -1,-1 0,-0.55228 0.44772,-1 1,-1 0.04775,4.97e-4 0.09539,0.0044 0.14258,0.01172 -0.09279,-0.15464 -0.14206,-0.33145 -0.14258,-0.51175 0,-0.55228 0.44772,-1 1,-1 0.17964,8.745e-4 0.35574,0.050126 0.50977,0.14258 -0.0067,-0.047232 -0.0099,-0.09488 -0.0098,-0.14258 2.23e-4,-0.33578 0.16896,-0.64904 0.44922,-0.83398 l 2.0312,-6.7051 C 14.05628,1.20132 13.89418,1.00034 13.61718,1.00034 h -2.9922 c -0.277,0 -0.56286,0.20098 -0.63867,0.45117 l -2.4863,8.2109 -2.4883,-8.2109 C 4.935895,1.20132 4.65199,1.00034 4.37499,1.00034 Z" />
    <path
       d="M 1.3828,1 C 1.1058,1 0.9437,1.20098 1.01952,1.45117 l 3.9688,13.098 c 0.075815,0.2502 0.35972,0.45117 0.63672,0.45117 h 3.75 c 0.277,0 0.5609,-0.20098 0.63672,-0.45117 l 0.26367,-0.87109 c -0.1764,-0.18548 -0.27497,-0.43153 -0.27539,-0.6875 8.75e-4,-0.17964 0.05013,-0.35574 0.14258,-0.50976 -0.04723,0.0067 -0.09488,0.0099 -0.14258,0.0098 -0.55228,0 -1,-0.44772 -1,-1 0,-0.55228 0.44772,-1 1,-1 0.04775,4.97e-4 0.09539,0.0044 0.14258,0.01172 -0.09279,-0.15464 -0.14206,-0.33145 -0.14258,-0.51175 0,-0.55228 0.44772,-1 1,-1 0.17964,8.745e-4 0.35574,0.050126 0.50977,0.14258 -0.0067,-0.047232 -0.0099,-0.09488 -0.0098,-0.14258 2.23e-4,-0.33578 0.16896,-0.64904 0.44922,-0.83398 l 2.0312,-6.7051 C 14.05628,1.20132 13.89418,1.00034 13.61718,1.00034 h -2.9922 c -0.277,0 -0.56286,0.20098 -0.63867,0.45117 l -2.4863,8.2109 -2.4883,-8.2109 C 4.935895,1.20132 4.65199,1.00034 4.37499,1.00034 Z"
       id="base"
       inkscape:connector-curvature="0"
       style="fill:#ffffff" />
  </g>
</svg>
